; Generated by Safe-ZigZag Logic
G21 ; mm
G90 ; absolute
M83 ; relative E
G92 E0
G0 X85.500 Y114.101 Z0.000 F200.0
G0 X90.500 Y119.101 Z0.000 F200.0
G0 X95.500 Y124.101 Z0.000 F200.0
G0 X100.500 Y129.101 Z0.000 F200.0
G0 X105.500 Y124.101 Z0.000 F200.0
G0 X110.500 Y119.101 Z0.000 F200.0
G0 X105.500 Y119.101 Z0.000 E0.00000 F200.0
G0 X100.500 Y119.101 Z0.000 E0.00000 F200.0
G0 X95.500 Y119.101 Z0.000 E0.00000 F200.0
G0 X90.500 Y119.101 Z0.000 E0.00000 F200.0
G0 X85.500 Y119.101 Z0.000 E0.00000 F200.0
G0 X80.500 Y119.101 Z0.000 E0.00000 F200.0
G0 X75.500 Y119.101 Z0.000 E0.00000 F200.0
G0 X70.500 Y119.101 Z0.000 E0.00000 F200.0
G0 X65.500 Y119.101 Z0.000 E0.00000 F200.0
G0 X60.500 Y119.101 Z0.000 E0.00000 F200.0
G0 X55.500 Y124.101 Z0.000 F200.0
G0 X50.500 Y129.101 Z0.000 F200.0
G0 X45.500 Y124.101 Z0.000 F200.0
G0 X50.500 Y124.101 Z0.000 E0.00000 F200.0
G0 X55.500 Y124.101 Z0.000 E0.00000 F200.0
G0 X60.500 Y124.101 Z0.000 E0.00000 F200.0
G0 X65.500 Y124.101 Z0.000 E0.00000 F200.0
G0 X70.500 Y124.101 Z0.000 E0.00000 F200.0
G0 X75.500 Y124.101 Z0.000 E0.00000 F200.0
G0 X80.500 Y124.101 Z0.000 E0.00000 F200.0
G0 X85.500 Y124.101 Z0.000 E0.00000 F200.0
G0 X90.500 Y124.101 Z0.000 E0.00000 F200.0
G0 X95.500 Y124.101 Z0.000 E0.00000 F200.0
G0 X100.500 Y124.101 Z0.000 E0.00000 F200.0
G0 X105.500 Y124.101 Z0.000 E0.00000 F200.0
G0 X110.500 Y124.101 Z0.000 E0.00000 F200.0
G0 X115.500 Y124.101 Z0.000 E0.00000 F200.0
G0 X120.500 Y124.101 Z0.000 E0.00000 F200.0
G0 X125.500 Y124.101 Z0.000 E0.00000 F200.0
G0 X130.500 Y129.101 Z0.000 F200.0
G0 X135.500 Y129.101 Z0.000 F200.0
G0 X130.500 Y129.101 Z0.000 E0.00000 F200.0
G0 X125.500 Y129.101 Z0.000 E0.00000 F200.0
G0 X120.500 Y129.101 Z0.000 E0.00000 F200.0
G0 X115.500 Y129.101 Z0.000 E0.00000 F200.0
G0 X110.500 Y129.101 Z0.000 E0.00000 F200.0
G0 X105.500 Y129.101 Z0.000 E0.00000 F200.0
G0 X100.500 Y129.101 Z0.000 E0.00000 F200.0
G0 X95.500 Y129.101 Z0.000 E0.00000 F200.0
G0 X90.500 Y129.101 Z0.000 E0.00000 F200.0
G0 X85.500 Y129.101 Z0.000 E0.00000 F200.0
G0 X80.500 Y129.101 Z0.000 E0.00000 F200.0
G0 X75.500 Y129.101 Z0.000 E0.00000 F200.0
G0 X70.500 Y129.101 Z0.000 E0.00000 F200.0
G0 X65.500 Y129.101 Z0.000 E0.00000 F200.0
G0 X60.500 Y129.101 Z0.000 E0.00000 F200.0
G0 X55.500 Y129.101 Z0.000 E0.00000 F200.0
G0 X50.500 Y129.101 Z0.000 E0.00000 F200.0
G0 X45.500 Y129.101 Z0.000 E0.00000 F200.0
G0 X40.500 Y129.101 Z0.000 E0.00000 F200.0
G0 X35.500 Y129.101 Z0.000 E0.00000 F200.0
G0 X40.500 Y129.101 Z0.000 F200.0
G0 X45.500 Y134.101 Z0.000 F200.0
G0 X50.500 Y134.101 Z0.000 E0.00000 F200.0
G0 X55.500 Y134.101 Z0.000 E0.00000 F200.0
G0 X60.500 Y134.101 Z0.000 E0.00000 F200.0
G0 X65.500 Y134.101 Z0.000 E0.00000 F200.0
G0 X70.500 Y134.101 Z0.000 E0.00000 F200.0
G0 X75.500 Y134.101 Z0.000 E0.00000 F200.0
G0 X80.500 Y134.101 Z0.000 E0.00000 F200.0
G0 X85.500 Y134.101 Z0.000 E0.00000 F200.0
G0 X90.500 Y134.101 Z0.000 E0.00000 F200.0
G0 X95.500 Y134.101 Z0.000 E0.00000 F200.0
G0 X100.500 Y134.101 Z0.000 E0.00000 F200.0
G0 X105.500 Y134.101 Z0.000 E0.00000 F200.0
G0 X110.500 Y134.101 Z0.000 E0.00000 F200.0
G0 X115.500 Y134.101 Z0.000 E0.00000 F200.0
G0 X120.500 Y134.101 Z0.000 E0.00000 F200.0
G0 X125.500 Y134.101 Z0.000 E0.00000 F200.0
G0 X120.500 Y129.101 Z0.000 F200.0
G0 X115.500 Y134.101 Z0.000 F200.0
G0 X110.500 Y139.101 Z0.000 F200.0
G0 X105.500 Y139.101 Z0.000 E0.00000 F200.0
G0 X100.500 Y139.101 Z0.000 E0.00000 F200.0
G0 X95.500 Y139.101 Z0.000 E0.00000 F200.0
G0 X90.500 Y139.101 Z0.000 E0.00000 F200.0
G0 X85.500 Y139.101 Z0.000 E0.00000 F200.0
G0 X80.500 Y139.101 Z0.000 E0.00000 F200.0
G0 X75.500 Y139.101 Z0.000 E0.00000 F200.0
G0 X70.500 Y139.101 Z0.000 E0.00000 F200.0
G0 X65.500 Y139.101 Z0.000 E0.00000 F200.0
G0 X60.500 Y139.101 Z0.000 E0.00000 F200.0
G0 X65.500 Y134.101 Z0.000 F200.0
G0 X70.500 Y129.101 Z0.000 F200.0
G0 X75.500 Y134.101 Z0.000 F200.0
G0 X80.500 Y139.101 Z0.000 F200.0
G0 X85.500 Y144.101 Z0.000 F200.0
G0 X70.500 Y119.101 Z10.000 F200.0
G0 X75.500 Y119.101 Z10.000 E0.00000 F200.0
G0 X80.500 Y119.101 Z10.000 E0.00000 F200.0
G0 X85.500 Y119.101 Z10.000 E0.00000 F200.0
G0 X90.500 Y119.101 Z10.000 E0.00000 F200.0
G0 X95.500 Y119.101 Z10.000 E0.00000 F200.0
G0 X100.500 Y119.101 Z10.000 E0.00000 F200.0
G0 X105.500 Y124.101 Z10.000 F200.0
G0 X110.500 Y129.101 Z10.000 F200.0
G0 X115.500 Y129.101 Z10.000 F200.0
G0 X120.500 Y124.101 Z10.000 F200.0
G0 X115.500 Y124.101 Z10.000 E0.00000 F200.0
G0 X110.500 Y124.101 Z10.000 E0.00000 F200.0
G0 X105.500 Y124.101 Z10.000 E0.00000 F200.0
G0 X100.500 Y124.101 Z10.000 E0.00000 F200.0
G0 X95.500 Y124.101 Z10.000 E0.00000 F200.0
G0 X90.500 Y124.101 Z10.000 E0.00000 F200.0
G0 X85.500 Y124.101 Z10.000 E0.00000 F200.0
G0 X80.500 Y124.101 Z10.000 E0.00000 F200.0
G0 X75.500 Y124.101 Z10.000 E0.00000 F200.0
G0 X70.500 Y124.101 Z10.000 E0.00000 F200.0
G0 X65.500 Y124.101 Z10.000 E0.00000 F200.0
G0 X60.500 Y124.101 Z10.000 E0.00000 F200.0
G0 X55.500 Y124.101 Z10.000 E0.00000 F200.0
G0 X50.500 Y124.101 Z10.000 E0.00000 F200.0
G0 X45.500 Y129.101 Z10.000 F200.0
G0 X40.500 Y129.101 Z10.000 F200.0
G0 X45.500 Y129.101 Z10.000 E0.00000 F200.0
G0 X50.500 Y129.101 Z10.000 E0.00000 F200.0
G0 X55.500 Y129.101 Z10.000 E0.00000 F200.0
G0 X60.500 Y129.101 Z10.000 E0.00000 F200.0
G0 X65.500 Y129.101 Z10.000 E0.00000 F200.0
G0 X70.500 Y129.101 Z10.000 E0.00000 F200.0
G0 X75.500 Y129.101 Z10.000 E0.00000 F200.0
G0 X80.500 Y129.101 Z10.000 E0.00000 F200.0
G0 X85.500 Y129.101 Z10.000 E0.00000 F200.0
G0 X90.500 Y129.101 Z10.000 E0.00000 F200.0
G0 X95.500 Y129.101 Z10.000 E0.00000 F200.0
G0 X100.500 Y129.101 Z10.000 E0.00000 F200.0
G0 X105.500 Y129.101 Z10.000 E0.00000 F200.0
G0 X110.500 Y129.101 Z10.000 E0.00000 F200.0
G0 X115.500 Y129.101 Z10.000 E0.00000 F200.0
G0 X120.500 Y129.101 Z10.000 E0.00000 F200.0
G0 X125.500 Y129.101 Z10.000 E0.00000 F200.0
G0 X130.500 Y129.101 Z10.000 E0.00000 F200.0
G0 X125.500 Y129.101 Z10.000 F200.0
G0 X120.500 Y134.101 Z10.000 F200.0
G0 X115.500 Y134.101 Z10.000 E0.00000 F200.0
G0 X110.500 Y134.101 Z10.000 E0.00000 F200.0
G0 X105.500 Y134.101 Z10.000 E0.00000 F200.0
G0 X100.500 Y134.101 Z10.000 E0.00000 F200.0
G0 X95.500 Y134.101 Z10.000 E0.00000 F200.0
G0 X90.500 Y134.101 Z10.000 E0.00000 F200.0
G0 X85.500 Y134.101 Z10.000 E0.00000 F200.0
G0 X80.500 Y134.101 Z10.000 E0.00000 F200.0
G0 X75.500 Y134.101 Z10.000 E0.00000 F200.0
G0 X70.500 Y134.101 Z10.000 E0.00000 F200.0
G0 X65.500 Y134.101 Z10.000 E0.00000 F200.0
G0 X60.500 Y134.101 Z10.000 E0.00000 F200.0
G0 X55.500 Y134.101 Z10.000 E0.00000 F200.0
G0 X50.500 Y134.101 Z10.000 E0.00000 F200.0
G0 X55.500 Y129.101 Z10.000 F200.0
G0 X60.500 Y129.101 Z10.000 F200.0
G0 X65.500 Y134.101 Z10.000 F200.0
G0 X70.500 Y139.101 Z10.000 F200.0
G0 X75.500 Y139.101 Z10.000 E0.00000 F200.0
G0 X80.500 Y139.101 Z10.000 E0.00000 F200.0
G0 X85.500 Y139.101 Z10.000 E0.00000 F200.0
G0 X90.500 Y139.101 Z10.000 E0.00000 F200.0
G0 X95.500 Y139.101 Z10.000 E0.00000 F200.0
G0 X100.500 Y139.101 Z10.000 E0.00000 F200.0
G0 X80.500 Y119.101 Z20.000 F200.0
G0 X85.500 Y119.101 Z20.000 E0.00000 F200.0
G0 X90.500 Y119.101 Z20.000 E0.00000 F200.0
G0 X95.500 Y124.101 Z20.000 F200.0
G0 X100.500 Y129.101 Z20.000 F200.0
G0 X105.500 Y129.101 Z20.000 F200.0
G0 X110.500 Y124.101 Z20.000 F200.0
G0 X105.500 Y124.101 Z20.000 E0.00000 F200.0
G0 X100.500 Y124.101 Z20.000 E0.00000 F200.0
G0 X95.500 Y124.101 Z20.000 E0.00000 F200.0
G0 X90.500 Y124.101 Z20.000 E0.00000 F200.0
G0 X85.500 Y124.101 Z20.000 E0.00000 F200.0
G0 X80.500 Y124.101 Z20.000 E0.00000 F200.0
G0 X75.500 Y124.101 Z20.000 E0.00000 F200.0
G0 X70.500 Y124.101 Z20.000 E0.00000 F200.0
G0 X65.500 Y124.101 Z20.000 E0.00000 F200.0
G0 X60.500 Y124.101 Z20.000 E0.00000 F200.0
G0 X55.500 Y129.101 Z20.000 F200.0
G0 X50.500 Y129.101 Z20.000 F200.0
G0 X45.500 Y129.101 Z20.000 F200.0
G0 X50.500 Y129.101 Z20.000 E0.00000 F200.0
G0 X55.500 Y129.101 Z20.000 E0.00000 F200.0
G0 X60.500 Y129.101 Z20.000 E0.00000 F200.0
G0 X65.500 Y129.101 Z20.000 E0.00000 F200.0
G0 X70.500 Y129.101 Z20.000 E0.00000 F200.0
G0 X75.500 Y129.101 Z20.000 E0.00000 F200.0
G0 X80.500 Y129.101 Z20.000 E0.00000 F200.0
G0 X85.500 Y129.101 Z20.000 E0.00000 F200.0
G0 X90.500 Y129.101 Z20.000 E0.00000 F200.0
G0 X95.500 Y129.101 Z20.000 E0.00000 F200.0
G0 X100.500 Y129.101 Z20.000 E0.00000 F200.0
G0 X105.500 Y129.101 Z20.000 E0.00000 F200.0
G0 X110.500 Y129.101 Z20.000 E0.00000 F200.0
G0 X115.500 Y129.101 Z20.000 E0.00000 F200.0
G0 X120.500 Y129.101 Z20.000 E0.00000 F200.0
G0 X125.500 Y129.101 Z20.000 E0.00000 F200.0
G0 X120.500 Y129.101 Z20.000 F200.0
G0 X115.500 Y129.101 Z20.000 F200.0
G0 X110.500 Y134.101 Z20.000 F200.0
G0 X105.500 Y134.101 Z20.000 E0.00000 F200.0
G0 X100.500 Y134.101 Z20.000 E0.00000 F200.0
G0 X95.500 Y134.101 Z20.000 E0.00000 F200.0
G0 X90.500 Y134.101 Z20.000 E0.00000 F200.0
G0 X85.500 Y134.101 Z20.000 E0.00000 F200.0
G0 X80.500 Y134.101 Z20.000 E0.00000 F200.0
G0 X75.500 Y134.101 Z20.000 E0.00000 F200.0
G0 X70.500 Y134.101 Z20.000 E0.00000 F200.0
G0 X65.500 Y134.101 Z20.000 E0.00000 F200.0
G0 X60.500 Y134.101 Z20.000 E0.00000 F200.0
G0 X65.500 Y129.101 Z20.000 F200.0
G0 X70.500 Y129.101 Z20.000 F200.0
G0 X75.500 Y134.101 Z20.000 F200.0
G0 X80.500 Y139.101 Z20.000 F200.0
G0 X85.500 Y139.101 Z20.000 E0.00000 F200.0
G0 X90.500 Y139.101 Z20.000 E0.00000 F200.0
G0 X75.500 Y124.101 Z30.000 F200.0
G0 X80.500 Y124.101 Z30.000 E0.00000 F200.0
G0 X85.500 Y124.101 Z30.000 E0.00000 F200.0
G0 X90.500 Y124.101 Z30.000 E0.00000 F200.0
G0 X95.500 Y124.101 Z30.000 E0.00000 F200.0
G0 X100.500 Y129.101 Z30.000 F200.0
G0 X105.500 Y129.101 Z30.000 F200.0
G0 X110.500 Y129.101 Z30.000 F200.0
G0 X105.500 Y129.101 Z30.000 E0.00000 F200.0
G0 X100.500 Y129.101 Z30.000 E0.00000 F200.0
G0 X95.500 Y129.101 Z30.000 E0.00000 F200.0
G0 X90.500 Y129.101 Z30.000 E0.00000 F200.0
G0 X85.500 Y129.101 Z30.000 E0.00000 F200.0
G0 X80.500 Y129.101 Z30.000 E0.00000 F200.0
G0 X75.500 Y129.101 Z30.000 E0.00000 F200.0
G0 X70.500 Y129.101 Z30.000 E0.00000 F200.0
G0 X65.500 Y129.101 Z30.000 E0.00000 F200.0
G0 X60.500 Y129.101 Z30.000 E0.00000 F200.0
G0 X65.500 Y129.101 Z30.000 F200.0
G0 X70.500 Y129.101 Z30.000 F200.0
G0 X75.500 Y134.101 Z30.000 F200.0
G0 X80.500 Y134.101 Z30.000 E0.00000 F200.0
G0 X85.500 Y134.101 Z30.000 E0.00000 F200.0
G0 X90.500 Y134.101 Z30.000 E0.00000 F200.0
G0 X95.500 Y134.101 Z30.000 E0.00000 F200.0
G0 X75.500 Y129.101 Z40.000 F200.0
G0 X80.500 Y129.101 Z40.000 E0.00000 F200.0
G0 X85.500 Y129.101 Z40.000 E0.00000 F200.0
G0 X90.500 Y129.101 Z40.000 E0.00000 F200.0
G0 X95.500 Y129.101 Z40.000 E0.00000 F200.0
