; Generated by generateLineGcode
G21 ; units in mm
G90 ; absolute positioning (X/Y/Z)
M83 ; relative extrusion (E)
G92 E0 ; reset extrusion
G0 Z3.000 F600.0
G0 X75.500 Y79.101 Z3.000 F600.0
G0 Z0.000 F600.0
G1 X85.500 Y79.101 Z0.000 E0.80000 F600.0
G1 X95.500 Y79.101 Z0.000 E0.80000 F600.0
G0 Z3.000 F600.0
G0 X55.500 Y99.101 Z3.000 F600.0
G0 Z0.000 F600.0
G1 X65.500 Y99.101 Z0.000 E0.80000 F600.0
G1 X75.500 Y99.101 Z0.000 E0.80000 F600.0
G1 X85.500 Y99.101 Z0.000 E0.80000 F600.0
G1 X95.500 Y99.101 Z0.000 E0.80000 F600.0
G1 X105.500 Y99.101 Z0.000 E0.80000 F600.0
G1 X115.500 Y99.101 Z0.000 E0.80000 F600.0
G0 Z3.000 F600.0
G0 X35.500 Y119.101 Z3.000 F600.0
G0 Z0.000 F600.0
G1 X45.500 Y119.101 Z0.000 E0.80000 F600.0
G1 X55.500 Y119.101 Z0.000 E0.80000 F600.0
G1 X65.500 Y119.101 Z0.000 E0.80000 F600.0
G1 X75.500 Y119.101 Z0.000 E0.80000 F600.0
G1 X85.500 Y119.101 Z0.000 E0.80000 F600.0
G1 X95.500 Y119.101 Z0.000 E0.80000 F600.0
G1 X105.500 Y119.101 Z0.000 E0.80000 F600.0
G1 X115.500 Y119.101 Z0.000 E0.80000 F600.0
G1 X125.500 Y119.101 Z0.000 E0.80000 F600.0
G1 X135.500 Y119.101 Z0.000 E0.80000 F600.0
G0 Z3.000 F600.0
G0 X65.500 Y139.101 Z3.000 F600.0
G0 Z0.000 F600.0
G1 X75.500 Y139.101 Z0.000 E0.80000 F600.0
G1 X85.500 Y139.101 Z0.000 E0.80000 F600.0
G1 X95.500 Y139.101 Z0.000 E0.80000 F600.0
G1 X105.500 Y139.101 Z0.000 E0.80000 F600.0
G0 Z3.400 F600.0
G0 X65.500 Y139.101 Z3.400 F600.0
G0 Z0.400 F600.0
G1 X75.500 Y139.101 Z0.400 E0.80000 F600.0
G1 X85.500 Y139.101 Z0.400 E0.80000 F600.0
G1 X95.500 Y139.101 Z0.400 E0.80000 F600.0
G1 X105.500 Y139.101 Z0.400 E0.80000 F600.0
G0 Z3.400 F600.0
G0 X35.500 Y119.101 Z3.400 F600.0
G0 Z0.400 F600.0
G1 X45.500 Y119.101 Z0.400 E0.80000 F600.0
G1 X55.500 Y119.101 Z0.400 E0.80000 F600.0
G1 X65.500 Y119.101 Z0.400 E0.80000 F600.0
G1 X75.500 Y119.101 Z0.400 E0.80000 F600.0
G1 X85.500 Y119.101 Z0.400 E0.80000 F600.0
G1 X95.500 Y119.101 Z0.400 E0.80000 F600.0
G1 X105.500 Y119.101 Z0.400 E0.80000 F600.0
G1 X115.500 Y119.101 Z0.400 E0.80000 F600.0
G1 X125.500 Y119.101 Z0.400 E0.80000 F600.0
G1 X135.500 Y119.101 Z0.400 E0.80000 F600.0
G0 Z3.400 F600.0
G0 X55.500 Y99.101 Z3.400 F600.0
G0 Z0.400 F600.0
G1 X65.500 Y99.101 Z0.400 E0.80000 F600.0
G1 X75.500 Y99.101 Z0.400 E0.80000 F600.0
G1 X85.500 Y99.101 Z0.400 E0.80000 F600.0
G1 X95.500 Y99.101 Z0.400 E0.80000 F600.0
G1 X105.500 Y99.101 Z0.400 E0.80000 F600.0
G1 X115.500 Y99.101 Z0.400 E0.80000 F600.0
G0 Z3.400 F600.0
G0 X75.500 Y79.101 Z3.400 F600.0
G0 Z0.400 F600.0
G1 X85.500 Y79.101 Z0.400 E0.80000 F600.0
G1 X95.500 Y79.101 Z0.400 E0.80000 F600.0
G0 Z3.800 F600.0
G0 X75.500 Y79.101 Z3.800 F600.0
G0 Z0.800 F600.0
G1 X85.500 Y79.101 Z0.800 E0.80000 F600.0
G1 X95.500 Y79.101 Z0.800 E0.80000 F600.0
G0 Z3.800 F600.0
G0 X55.500 Y99.101 Z3.800 F600.0
G0 Z0.800 F600.0
G1 X65.500 Y99.101 Z0.800 E0.80000 F600.0
G1 X75.500 Y99.101 Z0.800 E0.80000 F600.0
G1 X85.500 Y99.101 Z0.800 E0.80000 F600.0
G1 X95.500 Y99.101 Z0.800 E0.80000 F600.0
G1 X105.500 Y99.101 Z0.800 E0.80000 F600.0
G1 X115.500 Y99.101 Z0.800 E0.80000 F600.0
G0 Z3.800 F600.0
G0 X35.500 Y119.101 Z3.800 F600.0
G0 Z0.800 F600.0
G1 X45.500 Y119.101 Z0.800 E0.80000 F600.0
G1 X55.500 Y119.101 Z0.800 E0.80000 F600.0
G1 X65.500 Y119.101 Z0.800 E0.80000 F600.0
G1 X75.500 Y119.101 Z0.800 E0.80000 F600.0
G1 X85.500 Y119.101 Z0.800 E0.80000 F600.0
G1 X95.500 Y119.101 Z0.800 E0.80000 F600.0
G1 X105.500 Y119.101 Z0.800 E0.80000 F600.0
G1 X115.500 Y119.101 Z0.800 E0.80000 F600.0
G1 X125.500 Y119.101 Z0.800 E0.80000 F600.0
G1 X135.500 Y119.101 Z0.800 E0.80000 F600.0
G0 Z3.800 F600.0
G0 X65.500 Y139.101 Z3.800 F600.0
G0 Z0.800 F600.0
G1 X75.500 Y139.101 Z0.800 E0.80000 F600.0
G1 X85.500 Y139.101 Z0.800 E0.80000 F600.0
G1 X95.500 Y139.101 Z0.800 E0.80000 F600.0
G1 X105.500 Y139.101 Z0.800 E0.80000 F600.0
G0 Z4.200 F600.0
G0 X65.500 Y139.101 Z4.200 F600.0
G0 Z1.200 F600.0
G1 X75.500 Y139.101 Z1.200 E0.80000 F600.0
G1 X85.500 Y139.101 Z1.200 E0.80000 F600.0
G1 X95.500 Y139.101 Z1.200 E0.80000 F600.0
G1 X105.500 Y139.101 Z1.200 E0.80000 F600.0
G0 Z4.200 F600.0
G0 X35.500 Y119.101 Z4.200 F600.0
G0 Z1.200 F600.0
G1 X45.500 Y119.101 Z1.200 E0.80000 F600.0
G1 X55.500 Y119.101 Z1.200 E0.80000 F600.0
G1 X65.500 Y119.101 Z1.200 E0.80000 F600.0
G1 X75.500 Y119.101 Z1.200 E0.80000 F600.0
G1 X85.500 Y119.101 Z1.200 E0.80000 F600.0
G1 X95.500 Y119.101 Z1.200 E0.80000 F600.0
G1 X105.500 Y119.101 Z1.200 E0.80000 F600.0
G1 X115.500 Y119.101 Z1.200 E0.80000 F600.0
G1 X125.500 Y119.101 Z1.200 E0.80000 F600.0
G1 X135.500 Y119.101 Z1.200 E0.80000 F600.0
G0 Z4.200 F600.0
G0 X55.500 Y99.101 Z4.200 F600.0
G0 Z1.200 F600.0
G1 X65.500 Y99.101 Z1.200 E0.80000 F600.0
G1 X75.500 Y99.101 Z1.200 E0.80000 F600.0
G1 X85.500 Y99.101 Z1.200 E0.80000 F600.0
G1 X95.500 Y99.101 Z1.200 E0.80000 F600.0
G1 X105.500 Y99.101 Z1.200 E0.80000 F600.0
G1 X115.500 Y99.101 Z1.200 E0.80000 F600.0
G0 Z4.200 F600.0
G0 X75.500 Y79.101 Z4.200 F600.0
G0 Z1.200 F600.0
G1 X85.500 Y79.101 Z1.200 E0.80000 F600.0
G1 X95.500 Y79.101 Z1.200 E0.80000 F600.0
G0 Z4.600 F600.0
G0 X75.500 Y79.101 Z4.600 F600.0
G0 Z1.600 F600.0
G1 X85.500 Y79.101 Z1.600 E0.80000 F600.0
G1 X95.500 Y79.101 Z1.600 E0.80000 F600.0
G0 Z4.600 F600.0
G0 X55.500 Y99.101 Z4.600 F600.0
G0 Z1.600 F600.0
G1 X65.500 Y99.101 Z1.600 E0.80000 F600.0
G1 X75.500 Y99.101 Z1.600 E0.80000 F600.0
G1 X85.500 Y99.101 Z1.600 E0.80000 F600.0
G1 X95.500 Y99.101 Z1.600 E0.80000 F600.0
G1 X105.500 Y99.101 Z1.600 E0.80000 F600.0
G1 X115.500 Y99.101 Z1.600 E0.80000 F600.0
G0 Z4.600 F600.0
G0 X35.500 Y119.101 Z4.600 F600.0
G0 Z1.600 F600.0
G1 X45.500 Y119.101 Z1.600 E0.80000 F600.0
G1 X55.500 Y119.101 Z1.600 E0.80000 F600.0
G1 X65.500 Y119.101 Z1.600 E0.80000 F600.0
G1 X75.500 Y119.101 Z1.600 E0.80000 F600.0
G1 X85.500 Y119.101 Z1.600 E0.80000 F600.0
G1 X95.500 Y119.101 Z1.600 E0.80000 F600.0
G1 X105.500 Y119.101 Z1.600 E0.80000 F600.0
G1 X115.500 Y119.101 Z1.600 E0.80000 F600.0
G1 X125.500 Y119.101 Z1.600 E0.80000 F600.0
G1 X135.500 Y119.101 Z1.600 E0.80000 F600.0
G0 Z4.600 F600.0
G0 X65.500 Y139.101 Z4.600 F600.0
G0 Z1.600 F600.0
G1 X75.500 Y139.101 Z1.600 E0.80000 F600.0
G1 X85.500 Y139.101 Z1.600 E0.80000 F600.0
G1 X95.500 Y139.101 Z1.600 E0.80000 F600.0
G1 X105.500 Y139.101 Z1.600 E0.80000 F600.0
G0 Z5.000 F600.0
G0 X65.500 Y139.101 Z5.000 F600.0
G0 Z2.000 F600.0
G1 X75.500 Y139.101 Z2.000 E0.80000 F600.0
G1 X85.500 Y139.101 Z2.000 E0.80000 F600.0
G1 X95.500 Y139.101 Z2.000 E0.80000 F600.0
G1 X105.500 Y139.101 Z2.000 E0.80000 F600.0
G0 Z5.000 F600.0
G0 X35.500 Y119.101 Z5.000 F600.0
G0 Z2.000 F600.0
G1 X45.500 Y119.101 Z2.000 E0.80000 F600.0
G1 X55.500 Y119.101 Z2.000 E0.80000 F600.0
G1 X65.500 Y119.101 Z2.000 E0.80000 F600.0
G1 X75.500 Y119.101 Z2.000 E0.80000 F600.0
G1 X85.500 Y119.101 Z2.000 E0.80000 F600.0
G1 X95.500 Y119.101 Z2.000 E0.80000 F600.0
G1 X105.500 Y119.101 Z2.000 E0.80000 F600.0
G1 X115.500 Y119.101 Z2.000 E0.80000 F600.0
G1 X125.500 Y119.101 Z2.000 E0.80000 F600.0
G1 X135.500 Y119.101 Z2.000 E0.80000 F600.0
G0 Z5.000 F600.0
G0 X55.500 Y99.101 Z5.000 F600.0
G0 Z2.000 F600.0
G1 X65.500 Y99.101 Z2.000 E0.80000 F600.0
G1 X75.500 Y99.101 Z2.000 E0.80000 F600.0
G1 X85.500 Y99.101 Z2.000 E0.80000 F600.0
G1 X95.500 Y99.101 Z2.000 E0.80000 F600.0
G1 X105.500 Y99.101 Z2.000 E0.80000 F600.0
G1 X115.500 Y99.101 Z2.000 E0.80000 F600.0
G0 Z5.000 F600.0
G0 X75.500 Y79.101 Z5.000 F600.0
G0 Z2.000 F600.0
G1 X85.500 Y79.101 Z2.000 E0.80000 F600.0
G1 X95.500 Y79.101 Z2.000 E0.80000 F600.0
G0 Z5.400 F600.0
G0 X75.500 Y79.101 Z5.400 F600.0
G0 Z2.400 F600.0
G1 X85.500 Y79.101 Z2.400 E0.80000 F600.0
G1 X95.500 Y79.101 Z2.400 E0.80000 F600.0
G0 Z5.400 F600.0
G0 X55.500 Y99.101 Z5.400 F600.0
G0 Z2.400 F600.0
G1 X65.500 Y99.101 Z2.400 E0.80000 F600.0
G1 X75.500 Y99.101 Z2.400 E0.80000 F600.0
G1 X85.500 Y99.101 Z2.400 E0.80000 F600.0
G1 X95.500 Y99.101 Z2.400 E0.80000 F600.0
G1 X105.500 Y99.101 Z2.400 E0.80000 F600.0
G1 X115.500 Y99.101 Z2.400 E0.80000 F600.0
G0 Z5.400 F600.0
G0 X35.500 Y119.101 Z5.400 F600.0
G0 Z2.400 F600.0
G1 X45.500 Y119.101 Z2.400 E0.80000 F600.0
G1 X55.500 Y119.101 Z2.400 E0.80000 F600.0
G1 X65.500 Y119.101 Z2.400 E0.80000 F600.0
G1 X75.500 Y119.101 Z2.400 E0.80000 F600.0
G1 X85.500 Y119.101 Z2.400 E0.80000 F600.0
G1 X95.500 Y119.101 Z2.400 E0.80000 F600.0
G1 X105.500 Y119.101 Z2.400 E0.80000 F600.0
G1 X115.500 Y119.101 Z2.400 E0.80000 F600.0
G1 X125.500 Y119.101 Z2.400 E0.80000 F600.0
G1 X135.500 Y119.101 Z2.400 E0.80000 F600.0
G0 Z5.400 F600.0
G0 X65.500 Y139.101 Z5.400 F600.0
G0 Z2.400 F600.0
G1 X75.500 Y139.101 Z2.400 E0.80000 F600.0
G1 X85.500 Y139.101 Z2.400 E0.80000 F600.0
G1 X95.500 Y139.101 Z2.400 E0.80000 F600.0
G1 X105.500 Y139.101 Z2.400 E0.80000 F600.0
G0 Z5.800 F600.0
G0 X65.500 Y139.101 Z5.800 F600.0
G0 Z2.800 F600.0
G1 X75.500 Y139.101 Z2.800 E0.80000 F600.0
G1 X85.500 Y139.101 Z2.800 E0.80000 F600.0
G1 X95.500 Y139.101 Z2.800 E0.80000 F600.0
G1 X105.500 Y139.101 Z2.800 E0.80000 F600.0
G0 Z5.800 F600.0
G0 X35.500 Y119.101 Z5.800 F600.0
G0 Z2.800 F600.0
G1 X45.500 Y119.101 Z2.800 E0.80000 F600.0
G1 X55.500 Y119.101 Z2.800 E0.80000 F600.0
G1 X65.500 Y119.101 Z2.800 E0.80000 F600.0
G1 X75.500 Y119.101 Z2.800 E0.80000 F600.0
G1 X85.500 Y119.101 Z2.800 E0.80000 F600.0
G1 X95.500 Y119.101 Z2.800 E0.80000 F600.0
G1 X105.500 Y119.101 Z2.800 E0.80000 F600.0
G1 X115.500 Y119.101 Z2.800 E0.80000 F600.0
G1 X125.500 Y119.101 Z2.800 E0.80000 F600.0
G1 X135.500 Y119.101 Z2.800 E0.80000 F600.0
G0 Z5.800 F600.0
G0 X55.500 Y99.101 Z5.800 F600.0
G0 Z2.800 F600.0
G1 X65.500 Y99.101 Z2.800 E0.80000 F600.0
G1 X75.500 Y99.101 Z2.800 E0.80000 F600.0
G1 X85.500 Y99.101 Z2.800 E0.80000 F600.0
G1 X95.500 Y99.101 Z2.800 E0.80000 F600.0
G1 X105.500 Y99.101 Z2.800 E0.80000 F600.0
G1 X115.500 Y99.101 Z2.800 E0.80000 F600.0
G0 Z5.800 F600.0
G0 X75.500 Y79.101 Z5.800 F600.0
G0 Z2.800 F600.0
G1 X85.500 Y79.101 Z2.800 E0.80000 F600.0
G1 X95.500 Y79.101 Z2.800 E0.80000 F600.0
G0 Z6.200 F600.0
G0 X75.500 Y79.101 Z6.200 F600.0
G0 Z3.200 F600.0
G1 X85.500 Y79.101 Z3.200 E0.80000 F600.0
G1 X95.500 Y79.101 Z3.200 E0.80000 F600.0
G0 Z6.200 F600.0
G0 X55.500 Y99.101 Z6.200 F600.0
G0 Z3.200 F600.0
G1 X65.500 Y99.101 Z3.200 E0.80000 F600.0
G1 X75.500 Y99.101 Z3.200 E0.80000 F600.0
G1 X85.500 Y99.101 Z3.200 E0.80000 F600.0
G1 X95.500 Y99.101 Z3.200 E0.80000 F600.0
G1 X105.500 Y99.101 Z3.200 E0.80000 F600.0
G1 X115.500 Y99.101 Z3.200 E0.80000 F600.0
G0 Z6.200 F600.0
G0 X35.500 Y119.101 Z6.200 F600.0
G0 Z3.200 F600.0
G1 X45.500 Y119.101 Z3.200 E0.80000 F600.0
G1 X55.500 Y119.101 Z3.200 E0.80000 F600.0
G1 X65.500 Y119.101 Z3.200 E0.80000 F600.0
G1 X75.500 Y119.101 Z3.200 E0.80000 F600.0
G1 X85.500 Y119.101 Z3.200 E0.80000 F600.0
G1 X95.500 Y119.101 Z3.200 E0.80000 F600.0
G1 X105.500 Y119.101 Z3.200 E0.80000 F600.0
G1 X115.500 Y119.101 Z3.200 E0.80000 F600.0
G1 X125.500 Y119.101 Z3.200 E0.80000 F600.0
G1 X135.500 Y119.101 Z3.200 E0.80000 F600.0
G0 Z6.200 F600.0
G0 X65.500 Y139.101 Z6.200 F600.0
G0 Z3.200 F600.0
G1 X75.500 Y139.101 Z3.200 E0.80000 F600.0
G1 X85.500 Y139.101 Z3.200 E0.80000 F600.0
G1 X95.500 Y139.101 Z3.200 E0.80000 F600.0
G1 X105.500 Y139.101 Z3.200 E0.80000 F600.0
G0 Z6.600 F600.0
G0 X65.500 Y139.101 Z6.600 F600.0
G0 Z3.600 F600.0
G1 X75.500 Y139.101 Z3.600 E0.80000 F600.0
G1 X85.500 Y139.101 Z3.600 E0.80000 F600.0
G1 X95.500 Y139.101 Z3.600 E0.80000 F600.0
G1 X105.500 Y139.101 Z3.600 E0.80000 F600.0
G0 Z6.600 F600.0
G0 X35.500 Y119.101 Z6.600 F600.0
G0 Z3.600 F600.0
G1 X45.500 Y119.101 Z3.600 E0.80000 F600.0
G1 X55.500 Y119.101 Z3.600 E0.80000 F600.0
G1 X65.500 Y119.101 Z3.600 E0.80000 F600.0
G1 X75.500 Y119.101 Z3.600 E0.80000 F600.0
G1 X85.500 Y119.101 Z3.600 E0.80000 F600.0
G1 X95.500 Y119.101 Z3.600 E0.80000 F600.0
G1 X105.500 Y119.101 Z3.600 E0.80000 F600.0
G1 X115.500 Y119.101 Z3.600 E0.80000 F600.0
G1 X125.500 Y119.101 Z3.600 E0.80000 F600.0
G1 X135.500 Y119.101 Z3.600 E0.80000 F600.0
G0 Z6.600 F600.0
G0 X55.500 Y99.101 Z6.600 F600.0
G0 Z3.600 F600.0
G1 X65.500 Y99.101 Z3.600 E0.80000 F600.0
G1 X75.500 Y99.101 Z3.600 E0.80000 F600.0
G1 X85.500 Y99.101 Z3.600 E0.80000 F600.0
G1 X95.500 Y99.101 Z3.600 E0.80000 F600.0
G1 X105.500 Y99.101 Z3.600 E0.80000 F600.0
G1 X115.500 Y99.101 Z3.600 E0.80000 F600.0
G0 Z6.600 F600.0
G0 X75.500 Y79.101 Z6.600 F600.0
G0 Z3.600 F600.0
G1 X85.500 Y79.101 Z3.600 E0.80000 F600.0
G1 X95.500 Y79.101 Z3.600 E0.80000 F600.0
G0 Z7.000 F600.0
G0 X75.500 Y79.101 Z7.000 F600.0
G0 Z4.000 F600.0
G1 X85.500 Y79.101 Z4.000 E0.80000 F600.0
G1 X95.500 Y79.101 Z4.000 E0.80000 F600.0
G0 Z7.000 F600.0
G0 X55.500 Y99.101 Z7.000 F600.0
G0 Z4.000 F600.0
G1 X65.500 Y99.101 Z4.000 E0.80000 F600.0
G1 X75.500 Y99.101 Z4.000 E0.80000 F600.0
G1 X85.500 Y99.101 Z4.000 E0.80000 F600.0
G1 X95.500 Y99.101 Z4.000 E0.80000 F600.0
G1 X105.500 Y99.101 Z4.000 E0.80000 F600.0
G1 X115.500 Y99.101 Z4.000 E0.80000 F600.0
G0 Z7.000 F600.0
G0 X35.500 Y119.101 Z7.000 F600.0
G0 Z4.000 F600.0
G1 X45.500 Y119.101 Z4.000 E0.80000 F600.0
G1 X55.500 Y119.101 Z4.000 E0.80000 F600.0
G1 X65.500 Y119.101 Z4.000 E0.80000 F600.0
G1 X75.500 Y119.101 Z4.000 E0.80000 F600.0
G1 X85.500 Y119.101 Z4.000 E0.80000 F600.0
G1 X95.500 Y119.101 Z4.000 E0.80000 F600.0
G1 X105.500 Y119.101 Z4.000 E0.80000 F600.0
G1 X115.500 Y119.101 Z4.000 E0.80000 F600.0
G1 X125.500 Y119.101 Z4.000 E0.80000 F600.0
G1 X135.500 Y119.101 Z4.000 E0.80000 F600.0
G0 Z7.000 F600.0
G0 X65.500 Y139.101 Z7.000 F600.0
G0 Z4.000 F600.0
G1 X75.500 Y139.101 Z4.000 E0.80000 F600.0
G1 X85.500 Y139.101 Z4.000 E0.80000 F600.0
G1 X95.500 Y139.101 Z4.000 E0.80000 F600.0
G1 X105.500 Y139.101 Z4.000 E0.80000 F600.0
G0 Z7.400 F600.0
G0 X65.500 Y139.101 Z7.400 F600.0
G0 Z4.400 F600.0
G1 X75.500 Y139.101 Z4.400 E0.80000 F600.0
G1 X85.500 Y139.101 Z4.400 E0.80000 F600.0
G1 X95.500 Y139.101 Z4.400 E0.80000 F600.0
G1 X105.500 Y139.101 Z4.400 E0.80000 F600.0
G0 Z7.400 F600.0
G0 X35.500 Y119.101 Z7.400 F600.0
G0 Z4.400 F600.0
G1 X45.500 Y119.101 Z4.400 E0.80000 F600.0
G1 X55.500 Y119.101 Z4.400 E0.80000 F600.0
G1 X65.500 Y119.101 Z4.400 E0.80000 F600.0
G1 X75.500 Y119.101 Z4.400 E0.80000 F600.0
G1 X85.500 Y119.101 Z4.400 E0.80000 F600.0
G1 X95.500 Y119.101 Z4.400 E0.80000 F600.0
G1 X105.500 Y119.101 Z4.400 E0.80000 F600.0
G1 X115.500 Y119.101 Z4.400 E0.80000 F600.0
G1 X125.500 Y119.101 Z4.400 E0.80000 F600.0
G1 X135.500 Y119.101 Z4.400 E0.80000 F600.0
G0 Z7.400 F600.0
G0 X55.500 Y99.101 Z7.400 F600.0
G0 Z4.400 F600.0
G1 X65.500 Y99.101 Z4.400 E0.80000 F600.0
G1 X75.500 Y99.101 Z4.400 E0.80000 F600.0
G1 X85.500 Y99.101 Z4.400 E0.80000 F600.0
G1 X95.500 Y99.101 Z4.400 E0.80000 F600.0
G1 X105.500 Y99.101 Z4.400 E0.80000 F600.0
G1 X115.500 Y99.101 Z4.400 E0.80000 F600.0
G0 Z7.400 F600.0
G0 X75.500 Y79.101 Z7.400 F600.0
G0 Z4.400 F600.0
G1 X85.500 Y79.101 Z4.400 E0.80000 F600.0
G1 X95.500 Y79.101 Z4.400 E0.80000 F600.0
G0 Z7.800 F600.0
G0 X75.500 Y79.101 Z7.800 F600.0
G0 Z4.800 F600.0
G1 X85.500 Y79.101 Z4.800 E0.80000 F600.0
G1 X95.500 Y79.101 Z4.800 E0.80000 F600.0
G0 Z7.800 F600.0
G0 X55.500 Y99.101 Z7.800 F600.0
G0 Z4.800 F600.0
G1 X65.500 Y99.101 Z4.800 E0.80000 F600.0
G1 X75.500 Y99.101 Z4.800 E0.80000 F600.0
G1 X85.500 Y99.101 Z4.800 E0.80000 F600.0
G1 X95.500 Y99.101 Z4.800 E0.80000 F600.0
G1 X105.500 Y99.101 Z4.800 E0.80000 F600.0
G1 X115.500 Y99.101 Z4.800 E0.80000 F600.0
G0 Z7.800 F600.0
G0 X35.500 Y119.101 Z7.800 F600.0
G0 Z4.800 F600.0
G1 X45.500 Y119.101 Z4.800 E0.80000 F600.0
G1 X55.500 Y119.101 Z4.800 E0.80000 F600.0
G1 X65.500 Y119.101 Z4.800 E0.80000 F600.0
G1 X75.500 Y119.101 Z4.800 E0.80000 F600.0
G1 X85.500 Y119.101 Z4.800 E0.80000 F600.0
G1 X95.500 Y119.101 Z4.800 E0.80000 F600.0
G1 X105.500 Y119.101 Z4.800 E0.80000 F600.0
G1 X115.500 Y119.101 Z4.800 E0.80000 F600.0
G1 X125.500 Y119.101 Z4.800 E0.80000 F600.0
G1 X135.500 Y119.101 Z4.800 E0.80000 F600.0
G0 Z7.800 F600.0
G0 X65.500 Y139.101 Z7.800 F600.0
G0 Z4.800 F600.0
G1 X75.500 Y139.101 Z4.800 E0.80000 F600.0
G1 X85.500 Y139.101 Z4.800 E0.80000 F600.0
G1 X95.500 Y139.101 Z4.800 E0.80000 F600.0
G1 X105.500 Y139.101 Z4.800 E0.80000 F600.0
G0 Z8.200 F600.0
G0 X65.500 Y139.101 Z8.200 F600.0
