; Generated by generateLineGcode
G21 ; units in mm
G90 ; absolute positioning (X/Y/Z)
M83 ; relative extrusion (E)
G92 E0 ; reset extrusion
G0 Z3.000 F400.0
G0 X35.500 Y131.401 Z3.000 F400.0
G0 Z0.000 F400.0
G1 X35.500 Y141.401 Z0.000 E0.80000 F400.0
G1 X35.500 Y151.401 Z0.000 E0.80000 F400.0
G0 Z3.000 F400.0
G0 X45.500 Y121.401 Z3.000 F400.0
G0 Z0.000 F400.0
G1 X45.500 Y131.401 Z0.000 E0.80000 F400.0
G1 X45.500 Y141.401 Z0.000 E0.80000 F400.0
G1 X45.500 Y151.401 Z0.000 E0.80000 F400.0
G0 Z3.000 F400.0
G0 X55.500 Y111.401 Z3.000 F400.0
G0 Z0.000 F400.0
G1 X55.500 Y121.401 Z0.000 E0.80000 F400.0
G1 X55.500 Y131.401 Z0.000 E0.80000 F400.0
G1 X55.500 Y141.401 Z0.000 E0.80000 F400.0
G1 X55.500 Y151.401 Z0.000 E0.80000 F400.0
G0 Z3.000 F400.0
G0 X65.500 Y111.401 Z3.000 F400.0
G0 Z0.000 F400.0
G1 X65.500 Y121.401 Z0.000 E0.80000 F400.0
G1 X65.500 Y131.401 Z0.000 E0.80000 F400.0
G1 X65.500 Y141.401 Z0.000 E0.80000 F400.0
G1 X65.500 Y151.401 Z0.000 E0.80000 F400.0
G1 X65.500 Y161.401 Z0.000 E0.80000 F400.0
G0 Z3.000 F400.0
G0 X75.500 Y101.401 Z3.000 F400.0
G0 Z0.000 F400.0
G1 X75.500 Y111.401 Z0.000 E0.80000 F400.0
G1 X75.500 Y121.401 Z0.000 E0.80000 F400.0
G1 X75.500 Y131.401 Z0.000 E0.80000 F400.0
G1 X75.500 Y141.401 Z0.000 E0.80000 F400.0
G1 X75.500 Y151.401 Z0.000 E0.80000 F400.0
G1 X75.500 Y161.401 Z0.000 E0.80000 F400.0
G0 Z3.000 F400.0
G0 X85.500 Y101.401 Z3.000 F400.0
G0 Z0.000 F400.0
G1 X85.500 Y111.401 Z0.000 E0.80000 F400.0
G1 X85.500 Y121.401 Z0.000 E0.80000 F400.0
G1 X85.500 Y131.401 Z0.000 E0.80000 F400.0
G1 X85.500 Y141.401 Z0.000 E0.80000 F400.0
G1 X85.500 Y151.401 Z0.000 E0.80000 F400.0
G1 X85.500 Y161.401 Z0.000 E0.80000 F400.0
G0 Z3.000 F400.0
G0 X95.500 Y101.401 Z3.000 F400.0
G0 Z0.000 F400.0
G1 X95.500 Y111.401 Z0.000 E0.80000 F400.0
G1 X95.500 Y121.401 Z0.000 E0.80000 F400.0
G1 X95.500 Y131.401 Z0.000 E0.80000 F400.0
G1 X95.500 Y141.401 Z0.000 E0.80000 F400.0
G1 X95.500 Y151.401 Z0.000 E0.80000 F400.0
G1 X95.500 Y161.401 Z0.000 E0.80000 F400.0
G0 Z3.000 F400.0
G0 X105.500 Y111.401 Z3.000 F400.0
G0 Z0.000 F400.0
G1 X105.500 Y121.401 Z0.000 E0.80000 F400.0
G1 X105.500 Y131.401 Z0.000 E0.80000 F400.0
G1 X105.500 Y141.401 Z0.000 E0.80000 F400.0
G1 X105.500 Y151.401 Z0.000 E0.80000 F400.0
G1 X105.500 Y161.401 Z0.000 E0.80000 F400.0
G0 Z3.000 F400.0
G0 X115.500 Y121.401 Z3.000 F400.0
G0 Z0.000 F400.0
G1 X115.500 Y131.401 Z0.000 E0.80000 F400.0
G1 X115.500 Y141.401 Z0.000 E0.80000 F400.0
G1 X115.500 Y151.401 Z0.000 E0.80000 F400.0
G0 Z3.000 F400.0
G0 X125.500 Y131.401 Z3.000 F400.0
G0 Z0.000 F400.0
G1 X125.500 Y141.401 Z0.000 E0.80000 F400.0
G1 X125.500 Y151.401 Z0.000 E0.80000 F400.0
G0 Z3.000 F400.0
G0 X135.500 Y141.401 Z3.000 F400.0
G0 Z0.000 F400.0
G1 X135.500 Y151.401 Z0.000 E0.80000 F400.0
G0 Z3.400 F400.0
G0 X135.500 Y141.401 Z3.400 F400.0
G0 Z0.400 F400.0
G1 X135.500 Y151.401 Z0.400 E0.80000 F400.0
G0 Z3.400 F400.0
G0 X125.500 Y131.401 Z3.400 F400.0
G0 Z0.400 F400.0
G1 X125.500 Y141.401 Z0.400 E0.80000 F400.0
G1 X125.500 Y151.401 Z0.400 E0.80000 F400.0
G0 Z3.400 F400.0
G0 X115.500 Y121.401 Z3.400 F400.0
G0 Z0.400 F400.0
G1 X115.500 Y131.401 Z0.400 E0.80000 F400.0
G1 X115.500 Y141.401 Z0.400 E0.80000 F400.0
G1 X115.500 Y151.401 Z0.400 E0.80000 F400.0
G0 Z3.400 F400.0
G0 X105.500 Y111.401 Z3.400 F400.0
G0 Z0.400 F400.0
G1 X105.500 Y121.401 Z0.400 E0.80000 F400.0
G1 X105.500 Y131.401 Z0.400 E0.80000 F400.0
G1 X105.500 Y141.401 Z0.400 E0.80000 F400.0
G1 X105.500 Y151.401 Z0.400 E0.80000 F400.0
G1 X105.500 Y161.401 Z0.400 E0.80000 F400.0
G0 Z3.400 F400.0
G0 X95.500 Y101.401 Z3.400 F400.0
G0 Z0.400 F400.0
G1 X95.500 Y111.401 Z0.400 E0.80000 F400.0
G1 X95.500 Y121.401 Z0.400 E0.80000 F400.0
G1 X95.500 Y131.401 Z0.400 E0.80000 F400.0
G1 X95.500 Y141.401 Z0.400 E0.80000 F400.0
G1 X95.500 Y151.401 Z0.400 E0.80000 F400.0
G1 X95.500 Y161.401 Z0.400 E0.80000 F400.0
G0 Z3.400 F400.0
G0 X85.500 Y101.401 Z3.400 F400.0
G0 Z0.400 F400.0
G1 X85.500 Y111.401 Z0.400 E0.80000 F400.0
G1 X85.500 Y121.401 Z0.400 E0.80000 F400.0
G1 X85.500 Y131.401 Z0.400 E0.80000 F400.0
G1 X85.500 Y141.401 Z0.400 E0.80000 F400.0
G1 X85.500 Y151.401 Z0.400 E0.80000 F400.0
G1 X85.500 Y161.401 Z0.400 E0.80000 F400.0
G0 Z3.400 F400.0
G0 X75.500 Y101.401 Z3.400 F400.0
G0 Z0.400 F400.0
G1 X75.500 Y111.401 Z0.400 E0.80000 F400.0
G1 X75.500 Y121.401 Z0.400 E0.80000 F400.0
G1 X75.500 Y131.401 Z0.400 E0.80000 F400.0
G1 X75.500 Y141.401 Z0.400 E0.80000 F400.0
G1 X75.500 Y151.401 Z0.400 E0.80000 F400.0
G1 X75.500 Y161.401 Z0.400 E0.80000 F400.0
G0 Z3.400 F400.0
G0 X65.500 Y111.401 Z3.400 F400.0
G0 Z0.400 F400.0
G1 X65.500 Y121.401 Z0.400 E0.80000 F400.0
G1 X65.500 Y131.401 Z0.400 E0.80000 F400.0
G1 X65.500 Y141.401 Z0.400 E0.80000 F400.0
G1 X65.500 Y151.401 Z0.400 E0.80000 F400.0
G1 X65.500 Y161.401 Z0.400 E0.80000 F400.0
G0 Z3.400 F400.0
G0 X55.500 Y111.401 Z3.400 F400.0
G0 Z0.400 F400.0
G1 X55.500 Y121.401 Z0.400 E0.80000 F400.0
G1 X55.500 Y131.401 Z0.400 E0.80000 F400.0
G1 X55.500 Y141.401 Z0.400 E0.80000 F400.0
G1 X55.500 Y151.401 Z0.400 E0.80000 F400.0
G0 Z3.400 F400.0
G0 X45.500 Y121.401 Z3.400 F400.0
G0 Z0.400 F400.0
G1 X45.500 Y131.401 Z0.400 E0.80000 F400.0
G1 X45.500 Y141.401 Z0.400 E0.80000 F400.0
G1 X45.500 Y151.401 Z0.400 E0.80000 F400.0
G0 Z3.400 F400.0
G0 X35.500 Y131.401 Z3.400 F400.0
G0 Z0.400 F400.0
G1 X35.500 Y141.401 Z0.400 E0.80000 F400.0
G1 X35.500 Y151.401 Z0.400 E0.80000 F400.0
G0 Z3.800 F400.0
G0 X35.500 Y131.401 Z3.800 F400.0
G0 Z0.800 F400.0
G1 X35.500 Y141.401 Z0.800 E0.80000 F400.0
G1 X35.500 Y151.401 Z0.800 E0.80000 F400.0
G0 Z3.800 F400.0
G0 X45.500 Y121.401 Z3.800 F400.0
G0 Z0.800 F400.0
G1 X45.500 Y131.401 Z0.800 E0.80000 F400.0
G1 X45.500 Y141.401 Z0.800 E0.80000 F400.0
G1 X45.500 Y151.401 Z0.800 E0.80000 F400.0
G0 Z3.800 F400.0
G0 X55.500 Y111.401 Z3.800 F400.0
G0 Z0.800 F400.0
G1 X55.500 Y121.401 Z0.800 E0.80000 F400.0
G1 X55.500 Y131.401 Z0.800 E0.80000 F400.0
G1 X55.500 Y141.401 Z0.800 E0.80000 F400.0
G1 X55.500 Y151.401 Z0.800 E0.80000 F400.0
G0 Z3.800 F400.0
G0 X65.500 Y111.401 Z3.800 F400.0
G0 Z0.800 F400.0
G1 X65.500 Y121.401 Z0.800 E0.80000 F400.0
G1 X65.500 Y131.401 Z0.800 E0.80000 F400.0
G1 X65.500 Y141.401 Z0.800 E0.80000 F400.0
G1 X65.500 Y151.401 Z0.800 E0.80000 F400.0
G1 X65.500 Y161.401 Z0.800 E0.80000 F400.0
G0 Z3.800 F400.0
G0 X75.500 Y101.401 Z3.800 F400.0
G0 Z0.800 F400.0
G1 X75.500 Y111.401 Z0.800 E0.80000 F400.0
G1 X75.500 Y121.401 Z0.800 E0.80000 F400.0
G1 X75.500 Y131.401 Z0.800 E0.80000 F400.0
G1 X75.500 Y141.401 Z0.800 E0.80000 F400.0
G1 X75.500 Y151.401 Z0.800 E0.80000 F400.0
G1 X75.500 Y161.401 Z0.800 E0.80000 F400.0
G0 Z3.800 F400.0
G0 X85.500 Y101.401 Z3.800 F400.0
G0 Z0.800 F400.0
G1 X85.500 Y111.401 Z0.800 E0.80000 F400.0
G1 X85.500 Y121.401 Z0.800 E0.80000 F400.0
G1 X85.500 Y131.401 Z0.800 E0.80000 F400.0
G1 X85.500 Y141.401 Z0.800 E0.80000 F400.0
G1 X85.500 Y151.401 Z0.800 E0.80000 F400.0
G1 X85.500 Y161.401 Z0.800 E0.80000 F400.0
G0 Z3.800 F400.0
G0 X95.500 Y101.401 Z3.800 F400.0
G0 Z0.800 F400.0
G1 X95.500 Y111.401 Z0.800 E0.80000 F400.0
G1 X95.500 Y121.401 Z0.800 E0.80000 F400.0
G1 X95.500 Y131.401 Z0.800 E0.80000 F400.0
G1 X95.500 Y141.401 Z0.800 E0.80000 F400.0
G1 X95.500 Y151.401 Z0.800 E0.80000 F400.0
G1 X95.500 Y161.401 Z0.800 E0.80000 F400.0
G0 Z3.800 F400.0
G0 X105.500 Y111.401 Z3.800 F400.0
G0 Z0.800 F400.0
G1 X105.500 Y121.401 Z0.800 E0.80000 F400.0
G1 X105.500 Y131.401 Z0.800 E0.80000 F400.0
G1 X105.500 Y141.401 Z0.800 E0.80000 F400.0
G1 X105.500 Y151.401 Z0.800 E0.80000 F400.0
G1 X105.500 Y161.401 Z0.800 E0.80000 F400.0
G0 Z3.800 F400.0
G0 X115.500 Y121.401 Z3.800 F400.0
G0 Z0.800 F400.0
G1 X115.500 Y131.401 Z0.800 E0.80000 F400.0
G1 X115.500 Y141.401 Z0.800 E0.80000 F400.0
G1 X115.500 Y151.401 Z0.800 E0.80000 F400.0
G0 Z3.800 F400.0
G0 X125.500 Y131.401 Z3.800 F400.0
G0 Z0.800 F400.0
G1 X125.500 Y141.401 Z0.800 E0.80000 F400.0
G1 X125.500 Y151.401 Z0.800 E0.80000 F400.0
G0 Z3.800 F400.0
G0 X135.500 Y141.401 Z3.800 F400.0
G0 Z0.800 F400.0
G1 X135.500 Y151.401 Z0.800 E0.80000 F400.0
G0 Z4.200 F400.0
G0 X135.500 Y141.401 Z4.200 F400.0
G0 Z1.200 F400.0
G1 X135.500 Y151.401 Z1.200 E0.80000 F400.0
G0 Z4.200 F400.0
G0 X125.500 Y131.401 Z4.200 F400.0
G0 Z1.200 F400.0
G1 X125.500 Y141.401 Z1.200 E0.80000 F400.0
G1 X125.500 Y151.401 Z1.200 E0.80000 F400.0
G0 Z4.200 F400.0
G0 X115.500 Y121.401 Z4.200 F400.0
G0 Z1.200 F400.0
G1 X115.500 Y131.401 Z1.200 E0.80000 F400.0
G1 X115.500 Y141.401 Z1.200 E0.80000 F400.0
G1 X115.500 Y151.401 Z1.200 E0.80000 F400.0
G0 Z4.200 F400.0
G0 X105.500 Y111.401 Z4.200 F400.0
G0 Z1.200 F400.0
G1 X105.500 Y121.401 Z1.200 E0.80000 F400.0
G1 X105.500 Y131.401 Z1.200 E0.80000 F400.0
G1 X105.500 Y141.401 Z1.200 E0.80000 F400.0
G1 X105.500 Y151.401 Z1.200 E0.80000 F400.0
G1 X105.500 Y161.401 Z1.200 E0.80000 F400.0
G0 Z4.200 F400.0
G0 X95.500 Y101.401 Z4.200 F400.0
G0 Z1.200 F400.0
G1 X95.500 Y111.401 Z1.200 E0.80000 F400.0
G1 X95.500 Y121.401 Z1.200 E0.80000 F400.0
G1 X95.500 Y131.401 Z1.200 E0.80000 F400.0
G1 X95.500 Y141.401 Z1.200 E0.80000 F400.0
G1 X95.500 Y151.401 Z1.200 E0.80000 F400.0
G1 X95.500 Y161.401 Z1.200 E0.80000 F400.0
G0 Z4.200 F400.0
G0 X85.500 Y101.401 Z4.200 F400.0
G0 Z1.200 F400.0
G1 X85.500 Y111.401 Z1.200 E0.80000 F400.0
G1 X85.500 Y121.401 Z1.200 E0.80000 F400.0
G1 X85.500 Y131.401 Z1.200 E0.80000 F400.0
G1 X85.500 Y141.401 Z1.200 E0.80000 F400.0
G1 X85.500 Y151.401 Z1.200 E0.80000 F400.0
G1 X85.500 Y161.401 Z1.200 E0.80000 F400.0
G0 Z4.200 F400.0
G0 X75.500 Y101.401 Z4.200 F400.0
G0 Z1.200 F400.0
G1 X75.500 Y111.401 Z1.200 E0.80000 F400.0
G1 X75.500 Y121.401 Z1.200 E0.80000 F400.0
G1 X75.500 Y131.401 Z1.200 E0.80000 F400.0
G1 X75.500 Y141.401 Z1.200 E0.80000 F400.0
G1 X75.500 Y151.401 Z1.200 E0.80000 F400.0
G1 X75.500 Y161.401 Z1.200 E0.80000 F400.0
G0 Z4.200 F400.0
G0 X65.500 Y111.401 Z4.200 F400.0
G0 Z1.200 F400.0
G1 X65.500 Y121.401 Z1.200 E0.80000 F400.0
G1 X65.500 Y131.401 Z1.200 E0.80000 F400.0
G1 X65.500 Y141.401 Z1.200 E0.80000 F400.0
G1 X65.500 Y151.401 Z1.200 E0.80000 F400.0
G1 X65.500 Y161.401 Z1.200 E0.80000 F400.0
G0 Z4.200 F400.0
G0 X55.500 Y111.401 Z4.200 F400.0
G0 Z1.200 F400.0
G1 X55.500 Y121.401 Z1.200 E0.80000 F400.0
G1 X55.500 Y131.401 Z1.200 E0.80000 F400.0
G1 X55.500 Y141.401 Z1.200 E0.80000 F400.0
G1 X55.500 Y151.401 Z1.200 E0.80000 F400.0
G0 Z4.200 F400.0
G0 X45.500 Y121.401 Z4.200 F400.0
G0 Z1.200 F400.0
G1 X45.500 Y131.401 Z1.200 E0.80000 F400.0
G1 X45.500 Y141.401 Z1.200 E0.80000 F400.0
G1 X45.500 Y151.401 Z1.200 E0.80000 F400.0
G0 Z4.200 F400.0
G0 X35.500 Y131.401 Z4.200 F400.0
G0 Z1.200 F400.0
G1 X35.500 Y141.401 Z1.200 E0.80000 F400.0
G1 X35.500 Y151.401 Z1.200 E0.80000 F400.0
G0 Z4.600 F400.0
G0 X35.500 Y131.401 Z4.600 F400.0
G0 Z1.600 F400.0
G1 X35.500 Y141.401 Z1.600 E0.80000 F400.0
G1 X35.500 Y151.401 Z1.600 E0.80000 F400.0
G0 Z4.600 F400.0
G0 X45.500 Y121.401 Z4.600 F400.0
G0 Z1.600 F400.0
G1 X45.500 Y131.401 Z1.600 E0.80000 F400.0
G1 X45.500 Y141.401 Z1.600 E0.80000 F400.0
G1 X45.500 Y151.401 Z1.600 E0.80000 F400.0
G0 Z4.600 F400.0
G0 X55.500 Y111.401 Z4.600 F400.0
G0 Z1.600 F400.0
G1 X55.500 Y121.401 Z1.600 E0.80000 F400.0
G1 X55.500 Y131.401 Z1.600 E0.80000 F400.0
G1 X55.500 Y141.401 Z1.600 E0.80000 F400.0
G1 X55.500 Y151.401 Z1.600 E0.80000 F400.0
G0 Z4.600 F400.0
G0 X65.500 Y111.401 Z4.600 F400.0
G0 Z1.600 F400.0
G1 X65.500 Y121.401 Z1.600 E0.80000 F400.0
G1 X65.500 Y131.401 Z1.600 E0.80000 F400.0
G1 X65.500 Y141.401 Z1.600 E0.80000 F400.0
G1 X65.500 Y151.401 Z1.600 E0.80000 F400.0
G1 X65.500 Y161.401 Z1.600 E0.80000 F400.0
G0 Z4.600 F400.0
G0 X75.500 Y101.401 Z4.600 F400.0
G0 Z1.600 F400.0
G1 X75.500 Y111.401 Z1.600 E0.80000 F400.0
G1 X75.500 Y121.401 Z1.600 E0.80000 F400.0
G1 X75.500 Y131.401 Z1.600 E0.80000 F400.0
G1 X75.500 Y141.401 Z1.600 E0.80000 F400.0
G1 X75.500 Y151.401 Z1.600 E0.80000 F400.0
G1 X75.500 Y161.401 Z1.600 E0.80000 F400.0
G0 Z4.600 F400.0
G0 X85.500 Y101.401 Z4.600 F400.0
G0 Z1.600 F400.0
G1 X85.500 Y111.401 Z1.600 E0.80000 F400.0
G1 X85.500 Y121.401 Z1.600 E0.80000 F400.0
G1 X85.500 Y131.401 Z1.600 E0.80000 F400.0
G1 X85.500 Y141.401 Z1.600 E0.80000 F400.0
G1 X85.500 Y151.401 Z1.600 E0.80000 F400.0
G1 X85.500 Y161.401 Z1.600 E0.80000 F400.0
G0 Z4.600 F400.0
G0 X95.500 Y101.401 Z4.600 F400.0
G0 Z1.600 F400.0
G1 X95.500 Y111.401 Z1.600 E0.80000 F400.0
G1 X95.500 Y121.401 Z1.600 E0.80000 F400.0
G1 X95.500 Y131.401 Z1.600 E0.80000 F400.0
G1 X95.500 Y141.401 Z1.600 E0.80000 F400.0
G1 X95.500 Y151.401 Z1.600 E0.80000 F400.0
G1 X95.500 Y161.401 Z1.600 E0.80000 F400.0
G0 Z4.600 F400.0
G0 X105.500 Y111.401 Z4.600 F400.0
G0 Z1.600 F400.0
G1 X105.500 Y121.401 Z1.600 E0.80000 F400.0
G1 X105.500 Y131.401 Z1.600 E0.80000 F400.0
G1 X105.500 Y141.401 Z1.600 E0.80000 F400.0
G1 X105.500 Y151.401 Z1.600 E0.80000 F400.0
G1 X105.500 Y161.401 Z1.600 E0.80000 F400.0
G0 Z4.600 F400.0
G0 X115.500 Y121.401 Z4.600 F400.0
G0 Z1.600 F400.0
G1 X115.500 Y131.401 Z1.600 E0.80000 F400.0
G1 X115.500 Y141.401 Z1.600 E0.80000 F400.0
G1 X115.500 Y151.401 Z1.600 E0.80000 F400.0
G0 Z4.600 F400.0
G0 X125.500 Y131.401 Z4.600 F400.0
G0 Z1.600 F400.0
G1 X125.500 Y141.401 Z1.600 E0.80000 F400.0
G1 X125.500 Y151.401 Z1.600 E0.80000 F400.0
G0 Z4.600 F400.0
G0 X135.500 Y141.401 Z4.600 F400.0
G0 Z1.600 F400.0
G1 X135.500 Y151.401 Z1.600 E0.80000 F400.0
G0 Z5.000 F400.0
G0 X135.500 Y141.401 Z5.000 F400.0
G0 Z2.000 F400.0
G1 X135.500 Y151.401 Z2.000 E0.80000 F400.0
G0 Z5.000 F400.0
G0 X125.500 Y131.401 Z5.000 F400.0
G0 Z2.000 F400.0
G1 X125.500 Y141.401 Z2.000 E0.80000 F400.0
G1 X125.500 Y151.401 Z2.000 E0.80000 F400.0
G0 Z5.000 F400.0
G0 X115.500 Y121.401 Z5.000 F400.0
G0 Z2.000 F400.0
G1 X115.500 Y131.401 Z2.000 E0.80000 F400.0
G1 X115.500 Y141.401 Z2.000 E0.80000 F400.0
G1 X115.500 Y151.401 Z2.000 E0.80000 F400.0
G0 Z5.000 F400.0
G0 X105.500 Y111.401 Z5.000 F400.0
G0 Z2.000 F400.0
G1 X105.500 Y121.401 Z2.000 E0.80000 F400.0
G1 X105.500 Y131.401 Z2.000 E0.80000 F400.0
G1 X105.500 Y141.401 Z2.000 E0.80000 F400.0
G1 X105.500 Y151.401 Z2.000 E0.80000 F400.0
G1 X105.500 Y161.401 Z2.000 E0.80000 F400.0
G0 Z5.000 F400.0
G0 X95.500 Y101.401 Z5.000 F400.0
G0 Z2.000 F400.0
G1 X95.500 Y111.401 Z2.000 E0.80000 F400.0
G1 X95.500 Y121.401 Z2.000 E0.80000 F400.0
G1 X95.500 Y131.401 Z2.000 E0.80000 F400.0
G1 X95.500 Y141.401 Z2.000 E0.80000 F400.0
G1 X95.500 Y151.401 Z2.000 E0.80000 F400.0
G1 X95.500 Y161.401 Z2.000 E0.80000 F400.0
G0 Z5.000 F400.0
G0 X85.500 Y101.401 Z5.000 F400.0
G0 Z2.000 F400.0
G1 X85.500 Y111.401 Z2.000 E0.80000 F400.0
G1 X85.500 Y121.401 Z2.000 E0.80000 F400.0
G1 X85.500 Y131.401 Z2.000 E0.80000 F400.0
G1 X85.500 Y141.401 Z2.000 E0.80000 F400.0
G1 X85.500 Y151.401 Z2.000 E0.80000 F400.0
G1 X85.500 Y161.401 Z2.000 E0.80000 F400.0
G0 Z5.000 F400.0
G0 X75.500 Y101.401 Z5.000 F400.0
G0 Z2.000 F400.0
G1 X75.500 Y111.401 Z2.000 E0.80000 F400.0
G1 X75.500 Y121.401 Z2.000 E0.80000 F400.0
G1 X75.500 Y131.401 Z2.000 E0.80000 F400.0
G1 X75.500 Y141.401 Z2.000 E0.80000 F400.0
G1 X75.500 Y151.401 Z2.000 E0.80000 F400.0
G1 X75.500 Y161.401 Z2.000 E0.80000 F400.0
G0 Z5.000 F400.0
G0 X65.500 Y111.401 Z5.000 F400.0
G0 Z2.000 F400.0
G1 X65.500 Y121.401 Z2.000 E0.80000 F400.0
G1 X65.500 Y131.401 Z2.000 E0.80000 F400.0
G1 X65.500 Y141.401 Z2.000 E0.80000 F400.0
G1 X65.500 Y151.401 Z2.000 E0.80000 F400.0
G1 X65.500 Y161.401 Z2.000 E0.80000 F400.0
G0 Z5.000 F400.0
G0 X55.500 Y111.401 Z5.000 F400.0
G0 Z2.000 F400.0
G1 X55.500 Y121.401 Z2.000 E0.80000 F400.0
G1 X55.500 Y131.401 Z2.000 E0.80000 F400.0
G1 X55.500 Y141.401 Z2.000 E0.80000 F400.0
G1 X55.500 Y151.401 Z2.000 E0.80000 F400.0
G0 Z5.000 F400.0
G0 X45.500 Y121.401 Z5.000 F400.0
G0 Z2.000 F400.0
G1 X45.500 Y131.401 Z2.000 E0.80000 F400.0
G1 X45.500 Y141.401 Z2.000 E0.80000 F400.0
G1 X45.500 Y151.401 Z2.000 E0.80000 F400.0
G0 Z5.000 F400.0
G0 X35.500 Y131.401 Z5.000 F400.0
G0 Z2.000 F400.0
G1 X35.500 Y141.401 Z2.000 E0.80000 F400.0
G1 X35.500 Y151.401 Z2.000 E0.80000 F400.0
G0 Z5.400 F400.0
G0 X35.500 Y131.401 Z5.400 F400.0
G0 Z2.400 F400.0
G1 X35.500 Y141.401 Z2.400 E0.80000 F400.0
G1 X35.500 Y151.401 Z2.400 E0.80000 F400.0
G0 Z5.400 F400.0
